svgs/fairscan.svg

<svg width="192" height="192" viewBox="0 0 192 192" fill="none" xmlns="http://www.w3.org/2000/svg">
<path d="M46 22H28C26.4087 22 24.8826 22.6321 23.7574 23.7574C22.6321 24.8826 22 26.4087 22 28V46M146 22H164C165.591 22 167.117 22.6321 168.243 23.7574C169.368 24.8826 170 26.4087 170 28V46M146 170H164C165.591 170 167.117 169.368 168.243 168.243C169.368 167.117 170 165.591 170 164V146M46 170H28C26.4087 170 24.8826 169.368 23.7574 168.243C22.6321 167.117 22 165.591 22 164V146" stroke="black" stroke-width="12" stroke-linecap="round" stroke-linejoin="round"/>
<path d="M109.248 45H61C58.2386 45 56 47.2386 56 50V142C56 144.761 58.2386 147 61 147H130C132.761 147 135 144.761 135 142V70.4897C135 69.1526 134.464 67.8712 133.513 66.9318L112.761 46.442C111.825 45.5181 110.563 45 109.248 45Z" stroke="black" stroke-width="10" stroke-linejoin="round"/>
<path d="M77 80H91.1293H108" stroke="black" stroke-width="10" stroke-linecap="round"/>
<path d="M77 111H96" stroke="black" stroke-width="10" stroke-linecap="round"/>
</svg>

<svg width="192" height="192" fill="none" xmlns="http://www.w3.org/2000/svg"><path d="M46 22H28a6 6 0 0 0-6 6v18m124-24h18a6.002 6.002 0 0 1 6 6v18m-24 124h18a6.003 6.003 0 0 0 4.243-1.757A6.003 6.003 0 0 0 170 164v-18M46 170H28a6 6 0 0 1-6-6v-18" stroke="#000" stroke-width="12" stroke-linecap="round" stroke-linejoin="round"/><path d="M110.248 45H61a5 5 0 0 0-5 5v92a5 5 0 0 0 5 5h70a5 5 0 0 0 5-5V70.49a5.002 5.002 0 0 0-1.487-3.558l-20.752-20.49A5 5 0 0 0 110.248 45Z" stroke="#000" stroke-width="12" stroke-linejoin="round"/><path d="M78 86h36m-36 20h16" stroke="#000" stroke-width="12" stroke-linecap="round"/></svg>
